public/img/widgets.svg

<?xml version="1.0" encoding="UTF-8"?>
<svg id="Calque_1" data-name="Calque 1" xmlns="http://www.w3.org/2000/svg" version="1.1" viewBox="0 0 800 800">
  <defs>
    <style>
      .cls-1 {
        fill: #6331ff;
      }

      .cls-1, .cls-2, .cls-3, .cls-4 {
        stroke-width: 0px;
      }

      .cls-2 {
        fill: #d9d2ff;
      }

      .cls-3 {
        fill: #a171ff;
      }

      .cls-4 {
        fill: #c2a9ff;
      }
    </style>
  </defs>
  <path class="cls-4" d="M570,680c0,22-18,40-40,40h-260c-22,0-40-18-40-40V140c0-22,18-40,40-40h260c22,0,40,18,40,40v540h0Z"/>
  <path class="cls-1" d="M530,730h-260c-28,0-50-22-50-50V140c0-28,22-50,50-50h260c28,0,50,22,50,50v540c0,28-22,50-50,50ZM270,110c-17,0-30,13-30,30v540c0,17,13,30,30,30h260c17,0,30-13,30-30V140c0-17-13-30-30-30h-260Z"/>
  <path class="cls-2" d="M540,582c0,10-9,18-20,18h-240c-11,0-20-8-20-18V198c0-10,9-18,20-18h240c11,0,20,8,20,18v384h0Z"/>
  <path class="cls-1" d="M520,610h-240c-17,0-30-13-30-28V198c0-16,13-28,30-28h240c17,0,30,13,30,28v384c0,15-13,28-30,28ZM280,190c-6,0-10,4-10,8v384c0,4,4,8,10,8h240c6,0,10-4,10-8V198c0-4-4-8-10-8h-240Z"/>
  <path class="cls-3" d="M370,660c0,16.6,13.4,30,30,30s30-13.4,30-30-13.4-30-30-30-30,13.4-30,30h0Z"/>
  <path class="cls-1" d="M400,700c-22,0-40-18-40-40s18-40,40-40,40,18,40,40-18,40-40,40ZM400,640c-11,0-20,9-20,20s9,20,20,20,20-9,20-20-9-20-20-20h0Z"/>
  <path class="cls-1" d="M360,130h80v20h-80v-20Z"/>
</svg>

<?xml version="1.0" encoding="utf-8"?>
<!-- Generator: Adobe Illustrator 27.9.3, SVG Export Plug-In . SVG Version: 9.03 Build 53313)  -->
<svg version="1.1" id="Calque_1" xmlns="http://www.w3.org/2000/svg" xmlns:xlink="http://www.w3.org/1999/xlink" x="0px" y="0px"
	 viewBox="0 0 800 800" style="enable-background:new 0 0 800 800;" xml:space="preserve">
<style type="text/css">
	.st0{fill:#D6AB7F;}
	.st1{fill:#6A576D;}
	.st2{fill:#F2E5CA;}
	.st3{fill:#231C1C;}
</style>
<path class="st0" d="M570,680c0,22-18,40-40,40H270c-22,0-40-18-40-40V140c0-22,18-40,40-40h260c22,0,40,18,40,40V680L570,680z"/>
<path class="st1" d="M530,730H270c-28,0-50-22-50-50V140c0-28,22-50,50-50h260c28,0,50,22,50,50v540C580,708,558,730,530,730z
	 M270,110c-17,0-30,13-30,30v540c0,17,13,30,30,30h260c17,0,30-13,30-30V140c0-17-13-30-30-30L270,110L270,110z"/>
<path class="st2" d="M540,582c0,10-9,18-20,18H280c-11,0-20-8-20-18V198c0-10,9-18,20-18h240c11,0,20,8,20,18L540,582L540,582z"/>
<path class="st1" d="M520,610H280c-17,0-30-13-30-28V198c0-16,13-28,30-28h240c17,0,30,13,30,28v384C550,597,537,610,520,610z
	 M280,190c-6,0-10,4-10,8v384c0,4,4,8,10,8h240c6,0,10-4,10-8V198c0-4-4-8-10-8H280z"/>
<path class="st1" d="M370,660c0,16.6,13.4,30,30,30c16.6,0,30-13.4,30-30c0-16.6-13.4-30-30-30C383.4,630,370,643.4,370,660
	C370,660,370,660,370,660L370,660z"/>
<path class="st3" d="M400,700c-22,0-40-18-40-40c0-22,18-40,40-40c22,0,40,18,40,40C440,682,422,700,400,700z M400,640
	c-11,0-20,9-20,20c0,11,9,20,20,20s20-9,20-20C420,649,411,640,400,640L400,640z"/>
<path class="st1" d="M360,130h80v20h-80V130z"/>
</svg>
